assets/features/global-acquiring/gcash.svg

<svg width="200" height="200" viewBox="0 0 200 200" fill="none" xmlns="http://www.w3.org/2000/svg">
<rect width="200" height="200" rx="40" fill="#007DFE"/>
<path d="M78.9604 60.087C84.0371 58.4302 89.4327 57.7423 94.7738 58.0863C102.599 58.5099 110.243 61.2783 116.612 65.8293C117.3 66.3326 118.047 66.7982 118.635 67.4484C119.646 68.6018 120.048 70.2377 119.688 71.7351C119.323 73.3542 118.051 74.7258 116.474 75.2123C114.938 75.6989 113.176 75.3759 111.947 74.3441C107.197 70.6865 101.411 68.3795 95.4493 67.8133C93.2676 67.57 91.0397 67.57 88.8579 67.8133C82.5687 68.4382 76.4849 70.9675 71.5928 74.99C66.0713 79.4991 62.0477 85.8453 60.4743 92.7998C59.0184 99.1083 59.4632 105.857 61.8085 111.901C64.2756 118.327 68.8656 123.889 74.6473 127.606C78.973 130.374 83.97 132.094 89.0635 132.576C91.0439 132.819 93.0662 132.819 95.0297 132.597C101.197 132.073 107.159 129.707 112.056 125.928C113.289 124.959 115.047 124.674 116.545 125.181C118.609 125.89 120.082 128.092 119.822 130.273C119.7 131.548 119.033 132.761 118.022 133.528C114.141 136.561 109.731 138.884 105.041 140.382C98.9946 142.324 92.483 142.827 86.1979 141.959C79.2205 140.99 72.5075 138.201 66.8895 133.956C61.4309 129.875 56.9835 124.435 54.0508 118.269C51.1809 112.224 49.7838 105.475 50.0271 98.7811C50.2495 90.5557 52.9809 82.4268 57.7933 75.7366C62.9707 68.4592 70.4726 62.8596 78.9814 60.0912L78.9604 60.087Z" fill="#022DB8" stroke="#007CFF" stroke-width="0.03" stroke-miterlimit="1.09"/>
<path d="M138.124 71.568C140.226 70.9431 142.693 71.933 143.704 73.9128C148.558 83.3923 150.681 94.2266 149.808 104.839C149.2 112.397 147.119 119.859 143.62 126.587C142.344 128.99 138.929 129.762 136.726 128.185C134.683 126.872 134.016 123.94 135.229 121.818C141.984 108.559 142.042 92.1252 135.371 78.8245C134.763 77.7339 134.44 76.4378 134.746 75.2047C135.09 73.4849 136.445 72.0294 138.124 71.568Z" fill="#70BAF7" stroke="#6FBAF7" stroke-width="0.03" stroke-miterlimit="1.09"/>
<path d="M78.3141 77.2476C86.8858 72.0716 98.4742 72.2142 106.803 77.8558C108.867 79.37 109.291 82.6039 107.692 84.6089C106.257 86.5677 103.282 87.155 101.243 85.8421C98.0085 83.7784 94.0856 82.8892 90.2843 83.3338C86.483 83.7365 82.8454 85.4981 80.1728 88.2245C77.5043 90.8713 75.7631 94.4282 75.3394 98.1696C74.9534 101.202 75.461 104.336 76.7155 107.125C78.3728 110.803 81.3853 113.857 85.0649 115.556C88.8242 117.334 93.2338 117.619 97.1945 116.386C102.494 114.767 106.878 110.384 108.397 105.065C104.596 105.086 100.794 105.065 96.9931 105.065C95.1722 105.065 93.4143 103.933 92.6674 102.297C91.736 100.418 92.2227 97.9725 93.8003 96.5967C94.61 95.8711 95.6799 95.3845 96.7708 95.3426C102.515 95.3006 108.233 95.3216 113.977 95.3216C115.857 95.2629 117.678 96.4331 118.425 98.1529C119.071 99.4867 118.869 101.001 118.79 102.44C118.286 108.664 115.475 114.671 111.023 119.075C106.756 123.362 100.996 126.13 94.9708 126.734C89.0466 127.38 82.9209 125.945 77.8861 122.732C72.8094 119.52 68.8487 114.524 66.9061 108.824C64.9257 103.065 65.0264 96.6135 67.0865 90.8922C69.1088 85.2339 73.1534 80.3389 78.3099 77.2476H78.3141Z" fill="white" stroke="#002CB8" stroke-width="0.03" stroke-miterlimit="1.09"/>
<path d="M124.983 79.8979C127.064 79.3526 129.43 80.4222 130.403 82.3432C135.661 93.4586 135.661 106.923 130.403 118.038C129.736 119.351 128.402 120.324 126.925 120.563C125.205 120.865 123.367 120.14 122.293 118.764C121.181 117.329 120.98 115.266 121.79 113.651C125.713 105.14 125.65 94.9351 121.689 86.4454C120.497 83.8365 122.192 80.5019 124.987 79.8979H124.983Z" fill="#70BAF7" stroke="#6FBAF7" stroke-width="0.03" stroke-miterlimit="1.09"/>
</svg>

<svg xmlns="http://www.w3.org/2000/svg" width="200" height="200" fill="none" viewBox="0 0 200 200"><rect width="200" height="200" fill="#007dfe" rx="40"/><path fill="#022db8" stroke="#007cff" stroke-miterlimit="1.09" stroke-width=".03" d="M78.96 60.087a42.3 42.3 0 0 1 15.814-2c7.825.423 15.469 3.191 21.838 7.742.688.504 1.435.97 2.023 1.62a4.86 4.86 0 0 1 1.053 4.286c-.365 1.62-1.637 2.99-3.214 3.477-1.536.487-3.298.164-4.527-.868-4.75-3.657-10.536-5.965-16.498-6.53a30 30 0 0 0-6.591 0 32.4 32.4 0 0 0-17.265 7.176C66.07 79.5 62.048 85.845 60.474 92.8c-1.456 6.308-1.01 13.057 1.335 19.101 2.467 6.426 7.057 11.988 12.838 15.705a32.6 32.6 0 0 0 14.417 4.97c1.98.243 4.002.243 5.966.021 6.167-.524 12.129-2.89 17.026-6.669 1.233-.969 2.991-1.254 4.489-.747 2.064.709 3.537 2.911 3.277 5.092a4.7 4.7 0 0 1-1.8 3.255 41.7 41.7 0 0 1-12.981 6.854c-6.046 1.942-12.558 2.445-18.843 1.577a41.7 41.7 0 0 1-19.308-8.003 42.4 42.4 0 0 1-12.84-15.687 42.1 42.1 0 0 1-4.023-19.488c.222-8.225 2.954-16.354 7.766-23.044 5.178-7.278 12.68-12.877 21.188-15.646z"/><path fill="#70baf7" stroke="#6fbaf7" stroke-miterlimit="1.09" stroke-width=".03" d="M138.124 71.568c2.102-.625 4.569.365 5.58 2.345 4.854 9.48 6.977 20.314 6.104 30.926-.608 7.558-2.689 15.02-6.188 21.748-1.276 2.403-4.691 3.175-6.894 1.598-2.043-1.313-2.71-4.245-1.497-6.367 6.755-13.259 6.813-29.693.142-42.993-.608-1.091-.931-2.387-.625-3.62.344-1.72 1.699-3.176 3.378-3.637Z"/><path fill="#fff" stroke="#002cb8" stroke-miterlimit="1.09" stroke-width=".03" d="M78.314 77.248c8.572-5.176 20.16-5.034 28.489.608 2.064 1.514 2.488 4.748.889 6.753-1.435 1.959-4.41 2.546-6.449 1.233a16.86 16.86 0 0 0-10.959-2.508 16.76 16.76 0 0 0-10.111 4.89c-2.669 2.647-4.41 6.204-4.834 9.946-.386 3.032.122 6.166 1.377 8.955a17.12 17.12 0 0 0 8.349 8.431c3.76 1.778 8.169 2.063 12.13.83 5.299-1.619 9.683-6.002 11.202-11.321-3.801.021-7.603 0-11.404 0-1.82 0-3.579-1.132-4.326-2.768-.931-1.879-.444-4.324 1.133-5.7.81-.726 1.88-1.212 2.97-1.254 5.745-.042 11.463-.021 17.207-.021 1.88-.06 3.701 1.111 4.448 2.83.646 1.335.444 2.849.365 4.288-.504 6.224-3.315 12.231-7.767 16.635-4.267 4.287-10.027 7.055-16.052 7.659-5.924.646-12.05-.789-17.085-4.002-5.077-3.212-9.037-8.208-10.98-13.908-1.98-5.759-1.88-12.21.18-17.932 2.023-5.658 6.067-10.553 11.224-13.644z"/><path fill="#70baf7" stroke="#6fbaf7" stroke-miterlimit="1.09" stroke-width=".03" d="M124.983 79.898c2.081-.545 4.447.524 5.42 2.445 5.258 11.116 5.258 24.58 0 35.695-.667 1.313-2.001 2.286-3.478 2.525-1.72.302-3.558-.423-4.632-1.799-1.112-1.435-1.313-3.498-.503-5.113 3.923-8.511 3.86-18.716-.101-27.206-1.192-2.608.503-5.943 3.298-6.547z"/></svg>
